X:33
T:The Red Crow
M:4/4
L:1/8
R:reel
C:Mairead Ni Mhaonaigh
D:Altan: The Red Crow
N:The entire `A' part and the last measure of the `B' part (second
N:time through) can be played up an octave.
K:Ador
A,2EA, B,G,G,B,|A,2EG FDEG|AGED EA,A,D|ECDC B,G,G,B,|
A,2EA, B,G,G,B,|A,2EG FDEG|AGED EA,A,C|DB,G,B, A,4:|
A2eA ceAc|eAce dcBA|G2dc BdGB|dGBd edcB|
A2eA ceAc|eAcb ageg|agec d=fed|cABG A4|
A2eA ceAc|eAce dcBA|G2dc BdGB|dGBd edcB|
A2aA gAfA|A2cA BGGB|cABG AGED|ECDB, CA,B,G,||
